X: 32512
T: Planxty Burke
R: waltz
M: 3/4
K: Adorian
|:c2|A2 B2 cd|e4 d2|c2 cd e2|d2 B2 G2|G2 B2 G2|g2 B2 G2|G2 B2 G2|d2 B2 G2|
AB c2 A2|e2 c2 A2|A2 c2 A2|a2 c2 A2|g4 g2|g2 a2 b2|g6|e4:|
|:ga|b2 a2 g2|a2 g2 f2|g2 f2 e2|d2 e2 f2|g2 f2 e2|a2 g2 f2|g2 f2 e2|d2 B2 G2|
AB c2 A2|e2 c2 A2|A2 c2 A2|e2 c2 A2|g4 g2|g2 a2 b2|g6|e4:|
|:d2|ef g2 g2|g2 ag f2|g2 ag fe|d2 B2 G2|A2 a2 a2|a2 ba g2|a2 e2 f2|g4 ga|
b2 a2 g2|f2 e2 d2|ef g2 e2|d2 B2 G2|g4 d2|ef g2 e2|c6|A4:|

